icons/evolvere-blue-folders-flat-vivid-dark-fallback/apps/64/opera.svg

<?xml version="1.0" encoding="UTF-8" standalone="no"?>
<!-- Created with Inkscape (http://www.inkscape.org/) -->

<svg
   xmlns:dc="http://purl.org/dc/elements/1.1/"
   xmlns:cc="http://creativecommons.org/ns#"
   xmlns:rdf="http://www.w3.org/1999/02/22-rdf-syntax-ns#"
   xmlns:svg="http://www.w3.org/2000/svg"
   xmlns="http://www.w3.org/2000/svg"
   xmlns:sodipodi="http://sodipodi.sourceforge.net/DTD/sodipodi-0.dtd"
   xmlns:inkscape="http://www.inkscape.org/namespaces/inkscape"
   width="64"
   height="64"
   id="svg13094"
   version="1.1"
   inkscape:version="0.48.4 r9939"
   sodipodi:docname="opera.svg">
  <sodipodi:namedview
     id="base"
     pagecolor="#ffffff"
     bordercolor="#666666"
     borderopacity="1.0"
     inkscape:pageopacity="0"
     inkscape:pageshadow="2"
     inkscape:zoom="11.313708"
     inkscape:cx="36.839804"
     inkscape:cy="31.005287"
     inkscape:document-units="px"
     inkscape:current-layer="svg13094"
     showgrid="true"
     inkscape:snap-bbox="true"
     inkscape:bbox-paths="true"
     inkscape:bbox-nodes="true"
     inkscape:snap-bbox-edge-midpoints="true"
     inkscape:snap-bbox-midpoints="true"
     inkscape:object-paths="true"
     inkscape:snap-intersection-paths="true"
     inkscape:object-nodes="true"
     inkscape:snap-smooth-nodes="true"
     inkscape:snap-midpoints="true"
     inkscape:snap-object-midpoints="true"
     inkscape:snap-center="true"
     showguides="true"
     inkscape:guide-bbox="true"
     inkscape:window-width="1920"
     inkscape:window-height="1025"
     inkscape:window-x="-2"
     inkscape:window-y="32"
     inkscape:window-maximized="1"
     inkscape:snap-global="true"
     fit-margin-top="0"
     fit-margin-left="0"
     fit-margin-right="0"
     fit-margin-bottom="0"
     showborder="true"
     inkscape:showpageshadow="false"
     inkscape:snap-page="true">
    <inkscape:grid
       type="xygrid"
       id="grid3075"
       empspacing="5"
       visible="true"
       enabled="true"
       snapvisiblegridlinesonly="true"
       originx="1.6362304e-08px"
       originy="18px" />
  </sodipodi:namedview>
  <defs
     id="defs13096" />
  <metadata
     id="metadata13099">
    <rdf:RDF>
      <cc:Work
         rdf:about="">
        <dc:format>image/svg+xml</dc:format>
        <dc:type
           rdf:resource="http://purl.org/dc/dcmitype/StillImage" />
        <dc:title />
      </cc:Work>
    </rdf:RDF>
  </metadata>
  <path
     inkscape:connector-curvature="0"
     style="color:#000000;fill:#dd2929;fill-opacity:1;fill-rule:nonzero;stroke:none;stroke-width:2.28571415000000000;marker:none;visibility:visible;display:inline;overflow:visible;enable-background:accumulate"
     d="m 0,4 0,30 0,28 2,2 30,0 30,0 2,-2 L 64,34 64,4 32,4 0,4 z"
     id="path4095" />
  <path
     inkscape:connector-curvature="0"
     style="color:#000000;fill:#ff7f78;fill-opacity:1;fill-rule:nonzero;stroke:none;stroke-width:2.28571415000000000;marker:none;visibility:visible;display:inline;overflow:visible;enable-background:accumulate"
     d="M 2,0 0,1 0,4 32,4 64,4 64,1 62,0 32,0 2,0 z"
     id="path4090" />
  <path
     style="fill:#ff918b;fill-opacity:1;fill-rule:nonzero"
     d="M 0,3 0,6 2,4 z"
     id="path4298"
     inkscape:connector-curvature="0"
     sodipodi:nodetypes="cccc" />
  <path
     d="M 64,6 62,4 64,3 z"
     id="path3028"
     style="fill:#e75653;fill-opacity:1"
     inkscape:connector-curvature="0" />
  <g
     id="g3043"
     inkscape:export-filename="folder.png"
     inkscape:export-xdpi="90"
     inkscape:export-ydpi="90"
     transform="translate(-0.62500009,0.082283)" />
  <g
     id="scalable"
     transform="matrix(1.0385892,0,0,1.0385892,1214.7222,1878.8121)"
     inkscape:label="#g3701"
     style="fill:#ffffff" />
  <path
     clip-rule="evenodd"
     d="m 31.92873,49.50221 c 6.313756,0 6.882596,-9.563702 6.882596,-15.99895 0,-7.406851 -1.108177,-15.486961 -6.882596,-15.486961 -5.773426,0 -6.740388,8.590772 -6.740388,15.486961 -8.28e-4,6.376243 0.51663,15.999447 6.740388,15.999447 z M 31.92703,14.907734 C 42.264309,14.907734 50,22.383371 50,33.822652 50,43.923536 42.671547,53.092266 31.92873,53.092266 21.29,53.092266 14,43.921215 14,33.822652 13.999835,22.474032 21.496188,14.907734 31.927072,14.907734 z"
     id="path4016"
     style="fill:#ffdbdb;fill-opacity:1;fill-rule:evenodd"
     inkscape:connector-curvature="0" />
  <path
     style="fill:#7e0000;fill-opacity:0.19695613;fill-rule:nonzero;color:#000000;stroke:none;stroke-width:1.06597184999999994;marker:none;visibility:visible;display:inline;overflow:visible;enable-background:accumulate"
     d="M 32.5 18.0625 C 31.449657 18.187032 30.440019 18.3738 29.46875 18.65625 C 29.447035 18.662565 29.427923 18.681108 29.40625 18.6875 C 25.851492 20.843785 25.1875 27.759437 25.1875 33.5 C 25.186762 39.184567 25.59441 47.429953 30.09375 49.15625 C 28.404466 45.778102 28.18698 40.500905 28.1875 36.5 C 28.1875 29.603811 29.164074 21.03125 34.9375 21.03125 C 35.647951 21.03125 36.267942 21.146679 36.84375 21.375 C 35.888211 19.513895 34.503454 18.260839 32.5 18.0625 z M 46.15625 21.59375 C 48.586853 24.762004 50 28.917562 50 33.8125 C 50 43.913384 42.680317 53.09375 31.9375 53.09375 C 27.807257 53.09375 24.202682 51.688417 21.3125 49.40625 C 24.483839 53.420172 29.223507 56.09375 34.9375 56.09375 C 45.680317 56.09375 53 46.913384 53 36.8125 C 53 30.164718 50.373612 24.875065 46.15625 21.59375 z "
     id="path64" />
</svg>

<svg xmlns="http://www.w3.org/2000/svg" viewBox="0 0 64 64"><g color="#000"><path d="m0 4v30 28l2 2h30 30l2-2v-28-30h-32-32" fill="#dd2929"/><path d="m2 0l-2 1v3h32 32v-3l-2-1h-30-30" fill="#ff7f78"/></g><path d="m0 3v3l2-2z" fill="#ff918b"/><path d="m64 6l-2-2 2-1z" fill="#e75653"/><path d="m31.929 49.5c6.314 0 6.883-9.564 6.883-15.999 0-7.407-1.108-15.487-6.883-15.487-5.773 0-6.74 8.591-6.74 15.487-.001 6.376.517 15.999 6.74 15.999m-.002-34.595c10.337 0 18.07 7.476 18.07 18.915 0 10.1-7.328 19.27-18.07 19.27-10.639 0-17.929-9.171-17.929-19.27 0-11.349 7.496-18.915 17.927-18.915" fill="#ffdbdb" fill-rule="evenodd"/><path d="m32.5 18.06c-1.05.125-2.06.311-3.03.594-.022.006-.041.025-.063.031-3.555 2.156-4.219 9.07-4.219 14.813-.001 5.685.407 13.93 4.906 15.656-1.689-3.378-1.907-8.655-1.906-12.656 0-6.896.977-15.469 6.75-15.469.71 0 1.33.115 1.906.344-.956-1.861-2.34-3.114-4.344-3.313m13.656 3.531c2.431 3.168 3.844 7.324 3.844 12.219 0 10.1-7.32 19.281-18.06 19.281-4.13 0-7.735-1.405-10.625-3.688 3.171 4.01 7.911 6.688 13.625 6.688 10.743 0 18.06-9.18 18.06-19.281 0-6.648-2.626-11.937-6.844-15.219" fill="#7e0000" fill-opacity=".197" color="#000"/></svg>
